X:37
T:Trip To Oatland. WM.037
T:Oatland. WM.037
M:6/8
L:1/8
Q:3/8=120
S:Wm.Mittell’s MS, New Romney,Kent,1799
R:.Jig
O:England
A:Kent
Z:vmp.Chris Partington
K:G
(B/c/)|ded dBG|ded dBG|gfe dcB|cAAA3|!
ded dBG|ded dBG|gfe dec|BGGG2:|!
|:d|g3a3|bag fed|gfe dcB|cAAA2d|!
gfg aga|bag fed|gfe dec|BGGG2:|

